web/www/src/assets/img/reisoverzicht/Vietnam/Hanoi.svg

<svg fill="none" height="398" viewBox="0 0 820 398" width="820" xmlns="http://www.w3.org/2000/svg" xmlns:xlink="http://www.w3.org/1999/xlink"><filter id="a" color-interpolation-filters="sRGB" filterUnits="userSpaceOnUse" height="221" width="221" x="589" y="35"><feFlood flood-opacity="0" result="BackgroundImageFix"/><feColorMatrix in="SourceAlpha" type="matrix" values="0 0 0 0 0 0 0 0 0 0 0 0 0 0 0 0 0 0 127 0"/><feOffset dx="8" dy="-4"/><feGaussianBlur stdDeviation="6"/><feColorMatrix type="matrix" values="0 0 0 0 0 0 0 0 0 0 0 0 0 0 0 0 0 0 0.1 0"/><feBlend in2="BackgroundImageFix" mode="normal" result="effect1_dropShadow"/><feBlend in="SourceGraphic" in2="effect1_dropShadow" mode="normal" result="shape"/></filter><filter id="b" color-interpolation-filters="sRGB" filterUnits="userSpaceOnUse" height="279.006" width="766" x="0" y="118"><feFlood flood-opacity="0" result="BackgroundImageFix"/><feColorMatrix in="SourceAlpha" type="matrix" values="0 0 0 0 0 0 0 0 0 0 0 0 0 0 0 0 0 0 127 0"/><feOffset dx="8"/><feGaussianBlur stdDeviation="4"/><feColorMatrix type="matrix" values="0 0 0 0 0 0 0 0 0 0 0 0 0 0 0 0 0 0 0.2 0"/><feBlend in2="BackgroundImageFix" mode="normal" result="effect1_dropShadow"/><feBlend in="SourceGraphic" in2="effect1_dropShadow" mode="normal" result="shape"/></filter><g filter="url(#a)"><circle cx="691.5" cy="149.5" fill="#ffbd3a" r="98.5"/></g><g filter="url(#b)"><path d="m490.606 157.792h65.0289v231.214h-65.0289z" fill="#000"/><path d="m523.108 126 32.372 31.653h-64.745z" fill="#e3e687"/><path d="m497.93 160.531v211.856" stroke="#e3e687" stroke-dasharray="3.88 3.88" stroke-width="2"/><path d="m508.001 160.531v211.856" stroke="#e3e687" stroke-dasharray="3.88 3.88" stroke-width="2"/><path d="m518.072 160.531v211.856" stroke="#e3e687" stroke-dasharray="3.88 3.88" stroke-width="2"/><path d="m528.144 160.531v211.856" stroke="#e3e687" stroke-dasharray="3.88 3.88" stroke-width="2"/><path d="m538.216 160.531v211.856" stroke="#e3e687" stroke-dasharray="3.88 3.88" stroke-width="2"/><path d="m548.286 160.531v211.856" stroke="#e3e687" stroke-dasharray="3.88 3.88" stroke-width="2"/><path d="m426.301 191.029h64.3064v197.977h-64.3064z" fill="#000"/><path d="m458.364 160.092 32.372 31.653h-64.745z" fill="#f4e97d"/><path d="m433.185 193.043v179.345" stroke="#f4e97d" stroke-dasharray="3.88 3.88" stroke-width="2"/><path d="m443.256 193.042v179.345" stroke="#f4e97d" stroke-dasharray="3.88 3.88" stroke-width="2"/><path d="m453.328 193.042v179.345" stroke="#f4e97d" stroke-dasharray="3.88 3.88" stroke-width="2"/><path d="m463.399 193.042v179.345" stroke="#f4e97d" stroke-dasharray="3.88 3.88" stroke-width="2"/><path d="m473.471 193.042v179.345" stroke="#f4e97d" stroke-dasharray="3.88 3.88" stroke-width="2"/><path d="m483.542 193.042v179.345" stroke="#f4e97d" stroke-dasharray="3.88 3.88" stroke-width="2"/><path d="m619.942 209.093h65.0289v179.913h-65.0289z" fill="#000"/><path d="m652.599 177.796 32.372 31.653h-64.744z" fill="#a2daaf"/><path d="m627.42 211.418v160.969" stroke="#a2daaf" stroke-dasharray="3.88 3.88" stroke-width="2"/><path d="m637.492 211.418v160.969" stroke="#a2daaf" stroke-dasharray="3.88 3.88" stroke-width="2"/><path d="m647.563 211.418v160.969" stroke="#a2daaf" stroke-dasharray="3.88 3.88" stroke-width="2"/><path d="m657.635 211.418v160.969" stroke="#a2daaf" stroke-dasharray="3.88 3.88" stroke-width="2"/><path d="m667.707 211.418v160.969" stroke="#a2daaf" stroke-dasharray="3.88 3.88" stroke-width="2"/><path d="m677.777 211.418v160.969" stroke="#a2daaf" stroke-dasharray="3.88 3.88" stroke-width="2"/><path d="m684.971 264.729h65.0289v124.277h-65.0289z" fill="#000"/><path d="m717.627 233.659 32.372 31.653h-64.745z" fill="#91d7b9"/><path d="m692.449 267.282v107.274" stroke="#91d7b9" stroke-dasharray="3.88 3.88" stroke-width="2"/><path d="m702.52 267.281v107.274" stroke="#91d7b9" stroke-dasharray="3.88 3.88" stroke-width="2"/><path d="m712.591 267.281v107.274" stroke="#91d7b9" stroke-dasharray="3.88 3.88" stroke-width="2"/><path d="m722.663 267.281v107.274" stroke="#91d7b9" stroke-dasharray="3.88 3.88" stroke-width="2"/><path d="m732.735 267.281v107.274" stroke="#91d7b9" stroke-dasharray="3.88 3.88" stroke-width="2"/><path d="m742.805 267.281v107.274" stroke="#91d7b9" stroke-dasharray="3.88 3.88" stroke-width="2"/><path d="m361.271 157.792h65.0289v231.214h-65.0289z" fill="#000"/><path d="m393.619 126 32.372 31.653h-64.745z" fill="#e3e687"/><path d="m368.44 160.531v211.856" stroke="#e3e687" stroke-dasharray="3.88 3.88" stroke-width="2"/><path d="m378.512 160.531v211.856" stroke="#e3e687" stroke-dasharray="3.88 3.88" stroke-width="2"/><path d="m388.583 160.531v211.856" stroke="#e3e687" stroke-dasharray="3.88 3.88" stroke-width="2"/><path d="m398.655 160.531v211.856" stroke="#e3e687" stroke-dasharray="3.88 3.88" stroke-width="2"/><path d="m408.726 160.531v211.856" stroke="#e3e687" stroke-dasharray="3.88 3.88" stroke-width="2"/><path d="m418.797 160.531v211.856" stroke="#e3e687" stroke-dasharray="3.88 3.88" stroke-width="2"/><path d="m355.491 146.143c2.398 2.637 9.065 6.906 16.546 2.877v8.633h-10.791c-1.918-.959-5.755-4.604-5.755-11.51z" fill="#e3e687"/><path d="m369.879 131.755c2.398 2.638 9.064 6.906 16.545 2.877v8.633h-10.79c-1.919-.959-5.755-4.604-5.755-11.51z" fill="#e3e687"/><path d="m431.027 146.143c-2.398 2.637-9.064 6.906-16.546 2.877v8.633h10.791c1.919-.959 5.755-4.604 5.755-11.51z" fill="#e3e687"/><path d="m416.639 131.755c-2.398 2.638-9.064 6.906-16.546 2.877v8.633h10.791c1.919-.959 5.755-4.604 5.755-11.51z" fill="#e3e687"/><path d="m555.636 173.688h64.3064v215.318h-64.3064z" fill="#000"/><path d="m587.854 141.826 32.372 31.653h-64.745z" fill="#b2dda5"/><path d="m562.675 176.08v196.307" stroke="#b2dda5" stroke-dasharray="3.88 3.88" stroke-width="2"/><path d="m572.746 176.079v196.307" stroke="#b2dda5" stroke-dasharray="3.88 3.88" stroke-width="2"/><path d="m582.818 176.079v196.307" stroke="#b2dda5" stroke-dasharray="3.88 3.88" stroke-width="2"/><path d="m592.889 176.079v196.307" stroke="#b2dda5" stroke-dasharray="3.88 3.88" stroke-width="2"/><path d="m602.961 176.079v196.307" stroke="#b2dda5" stroke-dasharray="3.88 3.88" stroke-width="2"/><path d="m613.032 176.079v196.307" stroke="#b2dda5" stroke-dasharray="3.88 3.88" stroke-width="2"/><path d="m549.726 161.407c2.398 2.638 9.064 6.906 16.546 2.878v8.632h-10.791c-1.919-.959-5.755-4.604-5.755-11.51z" fill="#b2dda5"/><path d="m564.113 147.02c2.398 2.637 9.064 6.906 16.546 2.877v8.633h-10.791c-1.918-.959-5.755-4.604-5.755-11.51z" fill="#b2dda5"/><path d="m625.262 161.407c-2.398 2.638-9.065 6.906-16.546 2.878v8.632h10.791c1.918-.959 5.755-4.604 5.755-11.51z" fill="#b2dda5"/><path d="m610.874 147.02c-2.398 2.637-9.065 6.906-16.546 2.877v8.633h10.791c1.918-.959 5.755-4.604 5.755-11.51z" fill="#b2dda5"/><path d="m0 0h72.4121v183.444h-72.4121z" fill="#000" transform="matrix(-1 0 0 1 362.061 205.477)"/><path d="m0 0h72.4121v183.444h-72.4121z" fill="#000" transform="matrix(-1 0 0 1 217.236 205.477)"/><path d="m0 0h72.4121v165.743h-72.4121z" fill="#000" transform="matrix(-1 0 0 1 144.824 223.177)"/><path d="m0 0h72.4121v146.433h-72.4121z" fill="#000" transform="matrix(-1 0 0 1 289.648 242.487)"/><path d="m0 0h72.4121v125.514h-72.4121z" fill="#000" transform="matrix(-1 0 0 1 72.4121 263.406)"/><path d="m325.854 170.075-36.206 35.402h72.413z" fill="#d3e391"/><path d="m181.03 170.075-36.206 35.402h72.412z" fill="#b2dda5"/><path d="m108.5 188-36.5 37h73z" fill="#a2daaf"/><path d="m253.442 207.086-36.206 35.401h72.412z" fill="#c3e09b"/><path d="m36.2061 228.005-36.20608474 35.401h72.41208474z" fill="#91d7b9"/><g stroke-width="2"><path d="m354.015 208.696v166.548" stroke="#d3e391" stroke-dasharray="4.34 4.34"/><path d="m342.751 208.695v166.548" stroke="#d3e391" stroke-dasharray="4.34 4.34"/><path d="m331.487 208.695v166.548" stroke="#d3e391" stroke-dasharray="4.34 4.34"/><path d="m320.222 208.695v166.548" stroke="#d3e391" stroke-dasharray="4.34 4.34"/><path d="m308.958 208.695v166.548" stroke="#d3e391" stroke-dasharray="4.34 4.34"/><path d="m297.694 208.695v166.548" stroke="#d3e391" stroke-dasharray="4.34 4.34"/><path d="m209.19 208.696v166.548" stroke="#b2dda5" stroke-dasharray="4.34 4.34"/><path d="m197.926 208.695v166.548" stroke="#b2dda5" stroke-dasharray="4.34 4.34"/><path d="m186.662 208.695v166.548" stroke="#b2dda5" stroke-dasharray="4.34 4.34"/><path d="m175.398 208.695v166.548" stroke="#b2dda5" stroke-dasharray="4.34 4.34"/><path d="m164.134 208.695v166.548" stroke="#b2dda5" stroke-dasharray="4.34 4.34"/><path d="m152.87 208.695v166.548" stroke="#b2dda5" stroke-dasharray="4.34 4.34"/><path d="m136.778 226.085v150.477" stroke="#a2daaf" stroke-dasharray="4.34 4.34"/><path d="m125.514 226.085v150.477" stroke="#a2daaf" stroke-dasharray="4.34 4.34"/><path d="m114.25 226.085v150.477" stroke="#a2daaf" stroke-dasharray="4.34 4.34"/><path d="m102.986 226.085v150.477" stroke="#a2daaf" stroke-dasharray="4.34 4.34"/><path d="m91.7222 226.085v150.477" stroke="#a2daaf" stroke-dasharray="4.34 4.34"/><path d="m80.4578 226.085v150.477" stroke="#a2daaf" stroke-dasharray="4.34 4.34"/><path d="m281.603 245.058v132.946" stroke="#c3e09b" stroke-dasharray="4.34 4.34"/><path d="m270.339 245.057v132.946" stroke="#c3e09b" stroke-dasharray="4.34 4.34"/><path d="m259.074 245.057v132.946" stroke="#c3e09b" stroke-dasharray="4.34 4.34"/><path d="m247.811 245.057v132.946" stroke="#c3e09b" stroke-dasharray="4.34 4.34"/><path d="m236.546 245.057v132.946" stroke="#c3e09b" stroke-dasharray="4.34 4.34"/><path d="m225.282 245.057v132.946" stroke="#c3e09b" stroke-dasharray="4.34 4.34"/><path d="m64.3662 265.608v113.954" stroke="#91d7b9" stroke-dasharray="4.34 4.34"/><path d="m53.1021 265.608v113.954" stroke="#91d7b9" stroke-dasharray="4.34 4.34"/><path d="m41.8384 265.608v113.954" stroke="#91d7b9" stroke-dasharray="4.34 4.34"/><path d="m30.574 265.608v113.954" stroke="#91d7b9" stroke-dasharray="4.34 4.34"/><path d="m19.3096 265.608v113.954" stroke="#91d7b9" stroke-dasharray="4.34 4.34"/><path d="m8.04614 265.608v113.954" stroke="#91d7b9" stroke-dasharray="4.34 4.34"/></g><path d="m368.497 192.604c-2.682 2.95-10.138 7.723-18.505 3.218v9.655h12.068c2.146-1.073 6.437-5.15 6.437-12.873z" fill="#d3e391"/><path d="m352.406 176.512c-2.682 2.95-10.138 7.724-18.506 3.218v9.655h12.069c2.146-1.073 6.437-5.149 6.437-12.873z" fill="#d3e391"/><path d="m284.016 192.604c2.682 2.95 10.138 7.723 18.505 3.218v9.655h-12.068c-2.146-1.073-6.437-5.15-6.437-12.873z" fill="#d3e391"/><path d="m300.108 176.512c2.682 2.95 10.138 7.724 18.505 3.218v9.655h-12.068c-2.146-1.073-6.437-5.149-6.437-12.873z" fill="#d3e391"/><path d="m151.261 211.913c-2.682 2.95-10.138 7.724-18.506 3.218v9.655h12.069c2.146-1.072 6.437-5.149 6.437-12.873z" fill="#a2daaf"/><path d="m135.169 195.821c-2.681 2.95-10.137 7.724-18.505 3.219v9.655h12.069c2.145-1.073 6.436-5.15 6.436-12.874z" fill="#a2daaf"/><path d="m66.7795 211.913c2.682 2.95 10.1377 7.724 18.5054 3.218v9.655h-12.0687c-2.1456-1.072-6.4367-5.149-6.4367-12.873z" fill="#a2daaf"/><path d="m82.8718 195.821c2.682 2.95 10.1377 7.724 18.5052 3.219v9.655h-12.0685c-2.1456-1.073-6.4367-5.15-6.4367-12.874z" fill="#a2daaf"/></g></svg>

<svg width="820" height="398" viewBox="0 0 820 398" fill="none" xmlns="http://www.w3.org/2000/svg">
<g filter="url(#filter0_d)">
<circle cx="691.5" cy="149.5" r="98.5" fill="#FFBD3A"/>
</g>
<g filter="url(#filter1_d)">
<rect x="490.606" y="157.792" width="65.0289" height="231.214" fill="black"/>
<path d="M523.108 126L555.48 157.653H490.735L523.108 126Z" fill="#E3E687"/>
<path d="M497.93 160.531V372.387" stroke="#E3E687" stroke-width="2" stroke-dasharray="3.88 3.88"/>
<path d="M508.001 160.531V372.387" stroke="#E3E687" stroke-width="2" stroke-dasharray="3.88 3.88"/>
<path d="M518.072 160.531V372.387" stroke="#E3E687" stroke-width="2" stroke-dasharray="3.88 3.88"/>
<path d="M528.144 160.531V372.387" stroke="#E3E687" stroke-width="2" stroke-dasharray="3.88 3.88"/>
<path d="M538.216 160.531V372.387" stroke="#E3E687" stroke-width="2" stroke-dasharray="3.88 3.88"/>
<path d="M548.286 160.531V372.387" stroke="#E3E687" stroke-width="2" stroke-dasharray="3.88 3.88"/>
<rect x="426.301" y="191.029" width="64.3064" height="197.977" fill="black"/>
<path d="M458.364 160.092L490.736 191.745H425.991L458.364 160.092Z" fill="#F4E97D"/>
<path d="M433.185 193.043V372.388" stroke="#F4E97D" stroke-width="2" stroke-dasharray="3.88 3.88"/>
<path d="M443.256 193.042V372.387" stroke="#F4E97D" stroke-width="2" stroke-dasharray="3.88 3.88"/>
<path d="M453.328 193.042V372.387" stroke="#F4E97D" stroke-width="2" stroke-dasharray="3.88 3.88"/>
<path d="M463.399 193.042V372.387" stroke="#F4E97D" stroke-width="2" stroke-dasharray="3.88 3.88"/>
<path d="M473.471 193.042V372.387" stroke="#F4E97D" stroke-width="2" stroke-dasharray="3.88 3.88"/>
<path d="M483.542 193.042V372.387" stroke="#F4E97D" stroke-width="2" stroke-dasharray="3.88 3.88"/>
<rect x="619.942" y="209.093" width="65.0289" height="179.913" fill="black"/>
<path d="M652.599 177.796L684.971 209.449H620.227L652.599 177.796Z" fill="#A2DAAF"/>
<path d="M627.42 211.418V372.387" stroke="#A2DAAF" stroke-width="2" stroke-dasharray="3.88 3.88"/>
<path d="M637.492 211.418V372.387" stroke="#A2DAAF" stroke-width="2" stroke-dasharray="3.88 3.88"/>
<path d="M647.563 211.418V372.387" stroke="#A2DAAF" stroke-width="2" stroke-dasharray="3.88 3.88"/>
<path d="M657.635 211.418V372.387" stroke="#A2DAAF" stroke-width="2" stroke-dasharray="3.88 3.88"/>
<path d="M667.707 211.418V372.387" stroke="#A2DAAF" stroke-width="2" stroke-dasharray="3.88 3.88"/>
<path d="M677.777 211.418V372.387" stroke="#A2DAAF" stroke-width="2" stroke-dasharray="3.88 3.88"/>
<rect x="684.971" y="264.729" width="65.0289" height="124.277" fill="black"/>
<path d="M717.627 233.659L749.999 265.312H685.254L717.627 233.659Z" fill="#91D7B9"/>
<path d="M692.449 267.282V374.556" stroke="#91D7B9" stroke-width="2" stroke-dasharray="3.88 3.88"/>
<path d="M702.52 267.281V374.555" stroke="#91D7B9" stroke-width="2" stroke-dasharray="3.88 3.88"/>
<path d="M712.591 267.281V374.555" stroke="#91D7B9" stroke-width="2" stroke-dasharray="3.88 3.88"/>
<path d="M722.663 267.281V374.555" stroke="#91D7B9" stroke-width="2" stroke-dasharray="3.88 3.88"/>
<path d="M732.735 267.281V374.555" stroke="#91D7B9" stroke-width="2" stroke-dasharray="3.88 3.88"/>
<path d="M742.805 267.281V374.555" stroke="#91D7B9" stroke-width="2" stroke-dasharray="3.88 3.88"/>
<rect x="361.271" y="157.792" width="65.0289" height="231.214" fill="black"/>
<path d="M393.619 126L425.991 157.653H361.246L393.619 126Z" fill="#E3E687"/>
<path d="M368.44 160.531V372.387" stroke="#E3E687" stroke-width="2" stroke-dasharray="3.88 3.88"/>
<path d="M378.512 160.531V372.387" stroke="#E3E687" stroke-width="2" stroke-dasharray="3.88 3.88"/>
<path d="M388.583 160.531V372.387" stroke="#E3E687" stroke-width="2" stroke-dasharray="3.88 3.88"/>
<path d="M398.655 160.531V372.387" stroke="#E3E687" stroke-width="2" stroke-dasharray="3.88 3.88"/>
<path d="M408.726 160.531V372.387" stroke="#E3E687" stroke-width="2" stroke-dasharray="3.88 3.88"/>
<path d="M418.797 160.531V372.387" stroke="#E3E687" stroke-width="2" stroke-dasharray="3.88 3.88"/>
<path d="M355.491 146.143C357.889 148.78 364.556 153.049 372.037 149.02V157.653H361.246C359.328 156.694 355.491 153.049 355.491 146.143Z" fill="#E3E687"/>
<path d="M369.879 131.755C372.277 134.393 378.943 138.661 386.424 134.632V143.265H375.634C373.715 142.306 369.879 138.661 369.879 131.755Z" fill="#E3E687"/>
<path d="M431.027 146.143C428.629 148.78 421.963 153.049 414.481 149.02V157.653H425.272C427.191 156.694 431.027 153.049 431.027 146.143Z" fill="#E3E687"/>
<path d="M416.639 131.755C414.241 134.393 407.575 138.661 400.093 134.632V143.265H410.884C412.803 142.306 416.639 138.661 416.639 131.755Z" fill="#E3E687"/>
<rect x="555.636" y="173.688" width="64.3064" height="215.318" fill="black"/>
<path d="M587.854 141.826L620.226 173.479H555.481L587.854 141.826Z" fill="#B2DDA5"/>
<path d="M562.675 176.08V372.387" stroke="#B2DDA5" stroke-width="2" stroke-dasharray="3.88 3.88"/>
<path d="M572.746 176.079V372.386" stroke="#B2DDA5" stroke-width="2" stroke-dasharray="3.88 3.88"/>
<path d="M582.818 176.079V372.386" stroke="#B2DDA5" stroke-width="2" stroke-dasharray="3.88 3.88"/>
<path d="M592.889 176.079V372.386" stroke="#B2DDA5" stroke-width="2" stroke-dasharray="3.88 3.88"/>
<path d="M602.961 176.079V372.386" stroke="#B2DDA5" stroke-width="2" stroke-dasharray="3.88 3.88"/>
<path d="M613.032 176.079V372.386" stroke="#B2DDA5" stroke-width="2" stroke-dasharray="3.88 3.88"/>
<path d="M549.726 161.407C552.124 164.045 558.79 168.313 566.272 164.285V172.917H555.481C553.562 171.958 549.726 168.313 549.726 161.407Z" fill="#B2DDA5"/>
<path d="M564.113 147.02C566.511 149.657 573.177 153.926 580.659 149.897V158.53H569.868C567.95 157.571 564.113 153.926 564.113 147.02Z" fill="#B2DDA5"/>
<path d="M625.262 161.407C622.864 164.045 616.197 168.313 608.716 164.285V172.917H619.507C621.425 171.958 625.262 168.313 625.262 161.407Z" fill="#B2DDA5"/>
<path d="M610.874 147.02C608.476 149.657 601.809 153.926 594.328 149.897V158.53H605.119C607.037 157.571 610.874 153.926 610.874 147.02Z" fill="#B2DDA5"/>
<rect width="72.4121" height="183.444" transform="matrix(-1 0 0 1 362.061 205.477)" fill="black"/>
<rect width="72.4121" height="183.444" transform="matrix(-1 0 0 1 217.236 205.477)" fill="black"/>
<rect width="72.4121" height="165.743" transform="matrix(-1 0 0 1 144.824 223.177)" fill="black"/>
<rect width="72.4121" height="146.433" transform="matrix(-1 0 0 1 289.648 242.487)" fill="black"/>
<rect width="72.4121" height="125.514" transform="matrix(-1 0 0 1 72.4121 263.406)" fill="black"/>
<path d="M325.854 170.075L289.648 205.477H362.061L325.854 170.075Z" fill="#D3E391"/>
<path d="M181.03 170.075L144.824 205.477H217.236L181.03 170.075Z" fill="#B2DDA5"/>
<path d="M108.5 188L72 225H145L108.5 188Z" fill="#A2DAAF"/>
<path d="M253.442 207.086L217.236 242.487H289.648L253.442 207.086Z" fill="#C3E09B"/>
<path d="M36.2061 228.005L1.52588e-05 263.406H72.4121L36.2061 228.005Z" fill="#91D7B9"/>
<path d="M354.015 208.696V375.244" stroke="#D3E391" stroke-width="2" stroke-dasharray="4.34 4.34"/>
<path d="M342.751 208.695V375.243" stroke="#D3E391" stroke-width="2" stroke-dasharray="4.34 4.34"/>
<path d="M331.487 208.695V375.243" stroke="#D3E391" stroke-width="2" stroke-dasharray="4.34 4.34"/>
<path d="M320.222 208.695V375.243" stroke="#D3E391" stroke-width="2" stroke-dasharray="4.34 4.34"/>
<path d="M308.958 208.695V375.243" stroke="#D3E391" stroke-width="2" stroke-dasharray="4.34 4.34"/>
<path d="M297.694 208.695V375.243" stroke="#D3E391" stroke-width="2" stroke-dasharray="4.34 4.34"/>
<path d="M209.19 208.696V375.244" stroke="#B2DDA5" stroke-width="2" stroke-dasharray="4.34 4.34"/>
<path d="M197.926 208.695V375.243" stroke="#B2DDA5" stroke-width="2" stroke-dasharray="4.34 4.34"/>
<path d="M186.662 208.695V375.243" stroke="#B2DDA5" stroke-width="2" stroke-dasharray="4.34 4.34"/>
<path d="M175.398 208.695V375.243" stroke="#B2DDA5" stroke-width="2" stroke-dasharray="4.34 4.34"/>
<path d="M164.134 208.695V375.243" stroke="#B2DDA5" stroke-width="2" stroke-dasharray="4.34 4.34"/>
<path d="M152.87 208.695V375.243" stroke="#B2DDA5" stroke-width="2" stroke-dasharray="4.34 4.34"/>
<path d="M136.778 226.085V376.562" stroke="#A2DAAF" stroke-width="2" stroke-dasharray="4.34 4.34"/>
<path d="M125.514 226.085V376.562" stroke="#A2DAAF" stroke-width="2" stroke-dasharray="4.34 4.34"/>
<path d="M114.25 226.085V376.562" stroke="#A2DAAF" stroke-width="2" stroke-dasharray="4.34 4.34"/>
<path d="M102.986 226.085V376.562" stroke="#A2DAAF" stroke-width="2" stroke-dasharray="4.34 4.34"/>
<path d="M91.7222 226.085V376.562" stroke="#A2DAAF" stroke-width="2" stroke-dasharray="4.34 4.34"/>
<path d="M80.4578 226.085V376.562" stroke="#A2DAAF" stroke-width="2" stroke-dasharray="4.34 4.34"/>
<path d="M281.603 245.058V378.004" stroke="#C3E09B" stroke-width="2" stroke-dasharray="4.34 4.34"/>
<path d="M270.339 245.057V378.003" stroke="#C3E09B" stroke-width="2" stroke-dasharray="4.34 4.34"/>
<path d="M259.074 245.057V378.003" stroke="#C3E09B" stroke-width="2" stroke-dasharray="4.34 4.34"/>
<path d="M247.811 245.057V378.003" stroke="#C3E09B" stroke-width="2" stroke-dasharray="4.34 4.34"/>
<path d="M236.546 245.057V378.003" stroke="#C3E09B" stroke-width="2" stroke-dasharray="4.34 4.34"/>
<path d="M225.282 245.057V378.003" stroke="#C3E09B" stroke-width="2" stroke-dasharray="4.34 4.34"/>
<path d="M64.3662 265.608V379.562" stroke="#91D7B9" stroke-width="2" stroke-dasharray="4.34 4.34"/>
<path d="M53.1021 265.608V379.562" stroke="#91D7B9" stroke-width="2" stroke-dasharray="4.34 4.34"/>
<path d="M41.8384 265.608V379.562" stroke="#91D7B9" stroke-width="2" stroke-dasharray="4.34 4.34"/>
<path d="M30.574 265.608V379.562" stroke="#91D7B9" stroke-width="2" stroke-dasharray="4.34 4.34"/>
<path d="M19.3096 265.608V379.562" stroke="#91D7B9" stroke-width="2" stroke-dasharray="4.34 4.34"/>
<path d="M8.04614 265.608V379.562" stroke="#91D7B9" stroke-width="2" stroke-dasharray="4.34 4.34"/>
<path d="M368.497 192.604C365.815 195.554 358.359 200.327 349.992 195.822V205.477H362.06C364.206 204.404 368.497 200.327 368.497 192.604Z" fill="#D3E391"/>
<path d="M352.406 176.512C349.724 179.462 342.268 184.236 333.9 179.73V189.385H345.969C348.115 188.312 352.406 184.236 352.406 176.512Z" fill="#D3E391"/>
<path d="M284.016 192.604C286.698 195.554 294.154 200.327 302.521 195.822V205.477H290.453C288.307 204.404 284.016 200.327 284.016 192.604Z" fill="#D3E391"/>
<path d="M300.108 176.512C302.79 179.462 310.246 184.236 318.613 179.73V189.385H306.545C304.399 188.312 300.108 184.236 300.108 176.512Z" fill="#D3E391"/>
<path d="M151.261 211.913C148.579 214.863 141.123 219.637 132.755 215.131V224.786H144.824C146.97 223.714 151.261 219.637 151.261 211.913Z" fill="#A2DAAF"/>
<path d="M135.169 195.821C132.488 198.771 125.032 203.545 116.664 199.04V208.695H128.733C130.878 207.622 135.169 203.545 135.169 195.821Z" fill="#A2DAAF"/>
<path d="M66.7795 211.913C69.4615 214.863 76.9172 219.637 85.2849 215.131V224.786H73.2162C71.0706 223.714 66.7795 219.637 66.7795 211.913Z" fill="#A2DAAF"/>
<path d="M82.8718 195.821C85.5538 198.771 93.0095 203.545 101.377 199.04V208.695H89.3085C87.1629 207.622 82.8718 203.545 82.8718 195.821Z" fill="#A2DAAF"/>
</g>
<defs>
<filter id="filter0_d" x="589" y="35" width="221" height="221" filterUnits="userSpaceOnUse" color-interpolation-filters="sRGB">
<feFlood flood-opacity="0" result="BackgroundImageFix"/>
<feColorMatrix in="SourceAlpha" type="matrix" values="0 0 0 0 0 0 0 0 0 0 0 0 0 0 0 0 0 0 127 0"/>
<feOffset dx="8" dy="-4"/>
<feGaussianBlur stdDeviation="6"/>
<feColorMatrix type="matrix" values="0 0 0 0 0 0 0 0 0 0 0 0 0 0 0 0 0 0 0.1 0"/>
<feBlend mode="normal" in2="BackgroundImageFix" result="effect1_dropShadow"/>
<feBlend mode="normal" in="SourceGraphic" in2="effect1_dropShadow" result="shape"/>
</filter>
<filter id="filter1_d" x="0" y="118" width="766" height="279.006" filterUnits="userSpaceOnUse" color-interpolation-filters="sRGB">
<feFlood flood-opacity="0" result="BackgroundImageFix"/>
<feColorMatrix in="SourceAlpha" type="matrix" values="0 0 0 0 0 0 0 0 0 0 0 0 0 0 0 0 0 0 127 0"/>
<feOffset dx="8"/>
<feGaussianBlur stdDeviation="4"/>
<feColorMatrix type="matrix" values="0 0 0 0 0 0 0 0 0 0 0 0 0 0 0 0 0 0 0.2 0"/>
<feBlend mode="normal" in2="BackgroundImageFix" result="effect1_dropShadow"/>
<feBlend mode="normal" in="SourceGraphic" in2="effect1_dropShadow" result="shape"/>
</filter>
</defs>
</svg>
